X: 1
T: THE DUSTY MILLER'S -- JIG
B: Ryan's Mammoth Collection of Fiddle Tunes
R: jig
M: 9/8
L: 1/8
Z: Contributed 20010527155818 by John Chambers jc:trillian.mit.edu
K: G
vB2d c2A (BG2) | E2A A2B (cA2) | B2d c2A (BG2) | D2F G2A (BG2) :|
|: B2d e2f g3 | a2A A2B (cA2) | B2d e2g f2a | g2e d2c (BG2) :|
